Papirus/24x24/apps/allegorithmic-Substance_B2M.svg

<svg width="24" height="24" version="1.1" xmlns="http://www.w3.org/2000/svg">
 <path d="m9.6407708 3.0904815c-0.8753549 0.3635905-1.7511141 0.7258204-2.6268499 1.0882771-0.4391981 0.1817953-0.5513888 0.407811-0.3846436 0.9291213l0.3582387 1.119685c-0.4681723 0.3711496-0.8935026 0.7933606-1.2681097 1.2588094l-1.1125398-0.3560315c-0.5213382-0.1666771-0.7472164-0.0544252-0.9291386 0.3846425-0.3621279 0.8758677-0.7252309 1.7513575-1.0882769 2.6268097-0.1819211 0.439219-0.1019036 0.678425 0.3846434 0.929159l1.0468863 0.53949c-0.085153 0.611641-0.056111 1.215155-0.00571 1.78405l-1.0411835 0.536617c-0.4865475 0.250583-0.5665656 0.48994-0.3846433 0.929121 0.3633898 0.875377 0.7258049 1.751093 1.088277 2.626848 0.1819211 0.439181 0.4078013 0.551357 0.9291384 0.384642l1.1196722-0.358299c0.3711798 0.46817 0.7933984 0.893518 1.2588328 1.268107l-0.3560957 1.112542c-0.1667452 0.52131-0.05455 0.747175 0.3846395 0.929121 0.8758786 0.362079 1.7513529 0.725216 2.6268506 1.088239 0.4391983 0.181796 0.6784043 0.102048 0.9291393-0.384642l0.539509-1.046854c0.611656 0.08504 1.215166 0.05594 1.78406 0.0038l0.536645 1.041184c0.250733 0.486539 0.489939 0.566551 0.929139 0.384605 0.875356-0.363213 1.751116-0.725783 2.626851-1.08824 0.439198-0.181795 0.551388-0.407811 0.384643-0.929121l-0.358239-1.119685c0.468171-0.371149 0.893502-0.79336 1.268109-1.258809l1.112539 0.356031c0.52134 0.166677 0.747218 0.05443 0.929141-0.384604 0.362128-0.875868 0.72523-1.751358 1.088275-2.626848 0.181923-0.439181 0.101903-0.678387-0.384643-0.929121l-1.046886-0.53949c0.08515-0.611641 0.05611-1.215156 0.0057-1.78405l1.04111-0.536675c0.486583-0.250583 0.566601-0.489902 0.38468-0.929121-0.36339-0.875339-0.725807-1.7510933-1.088279-2.6268098-0.181924-0.4391811-0.407801-0.5513953-0.929139-0.3846425l-1.119676 0.3582992c-0.37118-0.4681323-0.793398-0.8934803-1.258834-1.2680693l0.356103-1.1125417c0.166738-0.5213102 0.054546-0.7472126-0.384649-0.9291212-0.875878-0.3620788-1.751351-0.7252158-2.62685-1.0882772-0.439199-0.1817953-0.678405-0.1020472-0.929139 0.3846425l-0.539498 1.0468913c-0.611657-0.0850393-1.215167-0.055937-1.78406-0.0037795l-0.53665-1.0411842c-0.267889-0.4713449-0.506909-0.4974614-0.929138-0.3846425z" style="fill:#16aca8"/>
 <path d="m6.6054757 5.0008437c-0.070979 0.1466456-0.0633 0.3363779 0.023433 0.6074456l0.234376 0.7304693c0.043019-0.034016 0.08123-0.076724 0.1250003-0.1114961l-0.3593725-1.1191181c-0.01319-0.041197-0.013757-0.069921-0.023433-0.1073385zm10.789062 0c-0.0097 0.037795-0.01024 0.066142-0.02343 0.1073385l-0.357423 1.1112945c0.04347 0.034016 0.08229 0.075591 0.125001 0.1114961l0.232418-0.7226457c0.08672-0.2709921 0.09437-0.4607622 0.02343-0.6074457zm-14.828125 5.7226583c-0.1347931 0.383811-0.044562 0.614362 0.408203 0.847672l1.017579 0.523427c0.00824-0.161386 0.00658-0.32126 0.029291-0.484384l-1.0468737-0.539036c-0.2153748-0.111118-0.3396041-0.222993-0.408203-0.347717zm18.867188 0c-0.06861 0.124724-0.192813 0.236598-0.408204 0.347716l-1.041015 0.535144c0.01398 0.157606 0.01863 0.323905 0.02733 0.486312l1.013681-0.521462c0.452799-0.233197 0.542997-0.463861 0.408204-0.847672zm-1.414063 2.000012c-5e-3 0.221481-0.0097 0.443037-0.04102 0.667956l0.02929 0.01512c0.01175-0.230929 0.02083-0.45857 0.01172-0.683565zm-16.039062 0.0548c-0.00488 0.213165-0.0033 0.421228 0.00782 0.628913l0.027364-0.01512c-0.017723-0.199935-0.026756-0.407809-0.035146-0.61523zm-1.4140628 1.999899c-0.08637 0.157228-0.077954 0.337134 0.023437 0.582009 0.3633899 0.875377 0.725419 1.751206 1.08789 2.626961 0.18192 0.439181 0.4083511 0.551508 0.9296878 0.384756l1.119141-0.359429c0.336514 0.424441 0.7201791 0.810066 1.1347661 1.158198l0.1250003-0.388687c-0.4654341-0.374551-0.8885862-0.801335-1.2597661-1.269505l-1.11914 0.359433c-0.5213367 0.166677-0.7477678 0.05442-0.9296877-0.384756-0.3624711-0.875754-0.7245-1.751622-1.08789-2.626961-0.012631-0.03024-0.01338-0.05329-0.023438-0.08202zm18.867188 0c-0.01005 0.03024-0.01081 0.0514-0.02343 0.08202-0.36305 0.87549-0.725768 1.751056-1.087895 2.626961-0.181924 0.439181-0.408349 0.551509-0.929688 0.384756l-1.111334-0.357548c-0.374608 0.465448-0.801359 0.888604-1.269531 1.259792l0.125 0.388649c0.417076-0.345071 0.804948-0.726501 1.144531-1.148448l1.111328 0.357544c0.521339 0.166677 0.747765 0.05443 0.929688-0.384756 0.362128-0.875868 0.724845-1.751471 1.08789-2.626961 0.101393-0.244913 0.109806-0.424857 0.02343-0.582009zm-10.324219 5.701152-0.539063 1.046892c-0.250734 0.486538-0.490488 0.566702-0.9296873 0.384756-0.8754981-0.363213-1.751074-0.725783-2.6269531-1.0879-0.2107313-0.08731-0.3427275-0.187086-0.4082029-0.322393-0.1126337 0.438463 0.00376 0.654727 0.4082029 0.822236 0.8758791 0.362079 1.751455 0.724876 2.6269531 1.087899 0.4391993 0.181795 0.6789533 0.101669 0.9296873-0.384756l0.539063-1.046891c0.611655 0.08504 1.214309 0.05632 1.783203 0.0076l0.53711 1.041033c0.250737 0.486539 0.490488 0.566702 0.929687 0.384756 0.875356-0.363213 1.751217-0.725405 2.626953-1.087899 0.404453-0.167433 0.520837-0.383774 0.408203-0.822236-0.06547 0.135307-0.197465 0.235086-0.408203 0.322393-0.875736 0.362457-1.751597 0.724536-2.626953 1.087899-0.439199 0.181796-0.67895 0.10167-0.929687-0.384755l-0.53711-1.042697c-0.568894 0.05065-1.171548 0.07937-1.783203-0.0076z" style="opacity:.2"/>
 <path d="m14.06446 3.0047618c-0.264318-0.030236-0.446714 0.1058268-0.634765 0.4707024l-0.539063 1.0468913c-0.611657-0.085039-1.21431-0.056315-1.783204-0.00756l-0.537109-1.0410321c-0.267886-0.4713449-0.507457-0.4975748-0.9296873-0.3847559-0.8753548 0.3632126-1.7512169 0.7254047-2.6269531 1.0878992-0.4044517 0.167433-0.5208366 0.3837732-0.4082029 0.8222362 0.0654727-0.1353071 0.1974652-0.2350866 0.4082029-0.3223937 0.8757362-0.3624567 1.7515983-0.7244977 2.6269531-1.0878992 0.4222303-0.1130079 0.6618003-0.0865512 0.9296873 0.3847559l0.537109 1.041033c0.568894-0.050646 1.171547-0.07937 1.783204 0.00756l0.539063-1.0468913c0.250734-0.4865386 0.490488-0.5666646 0.929687-0.3847559 0.875499 0.3628346 1.751075 0.7257448 2.626953 1.0878992 0.21078 0.087307 0.342746 0.1867086 0.408203 0.3223937 0.11263-0.438463-0.0038-0.6547276-0.408203-0.8222363-0.875878-0.3620796-1.751454-0.7248764-2.626953-1.0879-0.109799-0.045354-0.206816-0.075591-0.294921-0.085795zm3.074219 3.3261732-0.125 0.3886866c0.465436 0.3745512 0.888585 0.8013732 1.259766 1.2695055l1.11914-0.3594331c0.521337-0.1666772 0.747764-0.054425 0.929687 0.3847559 0.362472 0.8757165 0.7245 1.751622 1.087891 2.6269611 0.01262 0.03024 0.01338 0.05329 0.02343 0.08202 0.08638-0.157229 0.07795-0.337134-0.02343-0.58201-0.36339-0.8753428-0.725418-1.7512483-1.087889-2.6269648-0.181924-0.4391811-0.40835-0.5515086-0.929689-0.3847559l-1.11914 0.3594331c-0.336518-0.424441-0.720178-0.8100662-1.134766-1.1581984zm-10.275391 0.007559c-0.4170761 0.3450709-0.8049479 0.7265008-1.1445308 1.1484095l-1.1113281-0.3575433c-0.5213379-0.1666772-0.747766-0.0544252-0.9296878 0.3847559-0.3621271 0.8758677-0.724844 1.7514708-1.08789 2.6269609-0.1013911 0.244913-0.1098081 0.424856-0.0234369 0.582009 0.010057-0.03024 0.010806-0.0514 0.023437-0.08202 0.3630458-0.8754854 0.7257629-1.7510886 1.0878899-2.6269563 0.1819219-0.439181 0.4083499-0.5515086 0.9296878-0.3847559l1.1113281 0.3575433c0.3746078-0.4654488 0.8013588-0.8886047 1.2695308-1.2597921zm13.148437 5.753915-0.02733 0.01512c0.01776 0.200315 0.02676 0.40955 0.03515 0.617197 0.0049-0.213921 0.0033-0.422854-0.0078-0.630879zm-16.01953 0.0019c-0.011792 0.230929-0.020863 0.458381-0.011717 0.683603 0.00503-0.22148 0.00971-0.443036 0.041015-0.667956zm-0.00389 1.312516-1.0136719 0.523427c-0.4527631 0.233227-0.5429951 0.463891-0.4082001 0.847702 0.0685988-0.124724 0.1928269-0.236598 0.408203-0.347716l1.0410147-0.536809c-0.014022-0.157984-0.018633-0.323527-0.027364-0.486311zm16.019531 0c-0.0082 0.161386-0.0066 0.32126-0.02929 0.484384l1.046875 0.539036c0.215376 0.111119 0.339606 0.222993 0.408203 0.347717 0.134789-0.383811 0.04456-0.614324-0.408208-0.847672zm-2.871092 5.755842c-0.04301 0.03402-0.08123 0.07672-0.125001 0.111496l0.359377 1.119119c0.01319 0.0412 0.01376 0.06992 0.02343 0.107338 0.07098-0.146646 0.0633-0.336378-0.02343-0.607408zm-10.275391 0.0076-0.2324221 0.722684c-0.086736 0.27137-0.094416 0.460724-0.023433 0.607408 0.00968-0.0378 0.010243-0.06614 0.023433-0.107339l0.3574224-1.111332c-0.043468-0.03402-0.082292-0.07559-0.1250003-0.111496z" style="fill:#fffffd;opacity:.2"/>
 <path d="m12.000003 5.9999995-6.0000001 3 4e-7 2.9999995 8.3999977 2.799988-2.399998 1.2-2.9999997-1.499981v-0.500032l-3-0.999987v3l5.9999997 3.000038 6-3.000038v-3l-8.3999635-2.799874 2.3999635-1.2000001 3 1.5000191v0.499993l3 0.999874v-2.9998861z" style="fill:#fdffff"/>
 <path d="m12.000003 9.0000373-2.4003905 1.1992067 0.5996095 0.199181 1.800781-0.8984318 3 1.4999808v-0.499993zm3 1.9999747v0.499994l3 0.999987v-0.499994zm-8.9999997 1.000025v0.499994l7.8007807 2.601562 0.59961-0.30085zm0 3.999988v0.499993l5.9999997 3 6-3v-0.499993l-6 3z" style="fill:#160000;opacity:.2"/>
</svg>

<svg xmlns="http://www.w3.org/2000/svg" width="24" height="24" version="1.1">
 <path style="opacity:0.2" d="M 9.6408,3.5908 C 8.7654,3.9544 7.8897,4.3166 7.0139,4.6791 6.5747,4.8609 6.4625,5.0869 6.6293,5.6082 L 6.9875,6.7279 C 6.5193,7.099 6.094,7.5212 5.7194,7.9867 L 4.6069,7.6306 C 4.0855,7.464 3.8597,7.5762 3.6777,8.0153 3.3156,8.8912 2.9525,9.7666 2.5895,10.642 2.4075,11.081 2.4875,11.32 2.9741,11.571 L 4.021,12.11 C 3.9358,12.722 3.9649,13.326 4.0153,13.894 L 2.9741,14.431 C 2.4875,14.682 2.4075,14.921 2.5894,15.36 2.9528,16.236 3.3152,17.111 3.6777,17.987 3.8596,18.426 4.0855,18.538 4.6069,18.372 L 5.7265,18.013 C 6.0977,18.482 6.5199,18.907 6.9854,19.282 L 6.6293,20.394 C 6.4625,20.915 6.5747,21.141 7.0139,21.323 7.8898,21.685 8.7653,22.048 9.6408,22.411 10.08,22.593 10.319,22.513 10.57,22.027 L 11.109,20.98 C 11.721,21.065 12.325,21.036 12.893,20.984 L 13.43,22.025 C 13.681,22.511 13.92,22.591 14.359,22.41 15.235,22.046 16.11,21.684 16.986,21.321 17.425,21.139 17.537,20.913 17.371,20.392 L 17.013,19.272 C 17.481,18.901 17.906,18.479 18.281,18.014 L 19.393,18.37 C 19.914,18.536 20.14,18.424 20.322,17.985 20.684,17.109 21.048,16.234 21.411,15.358 21.592,14.919 21.512,14.68 21.026,14.429 L 19.979,13.89 C 20.064,13.278 20.035,12.674 19.985,12.106 L 21.026,11.569 C 21.512,11.318 21.592,11.079 21.411,10.64 21.047,9.7648 20.685,8.889 20.322,8.0133 20.14,7.5741 19.914,7.4619 19.393,7.6286 L 18.273,7.9869 C 17.902,7.5188 17.48,7.0935 17.015,6.7189 L 17.371,5.6063 C 17.537,5.085 17.425,4.8591 16.986,4.6772 16.11,4.3151 15.235,3.952 14.359,3.5889 13.92,3.4071 13.681,3.4869 13.43,3.9736 L 12.891,5.0205 C 12.279,4.9354 11.675,4.9645 11.107,5.0167 L 10.57,3.9755 C 10.302,3.5042 10.063,3.478 9.6407,3.5909 Z"/>
 <path style="fill:#16aca8" d="M 9.6408,3.0903 C 8.7654,3.4539 7.8897,3.8161 7.0139,4.1786 6.5747,4.3604 6.4625,4.5864 6.6293,5.1077 L 6.9875,6.2274 C 6.5193,6.5985 6.094,7.0207 5.7194,7.4862 L 4.6069,7.1301 C 4.0855,6.9635 3.8597,7.0757 3.6777,7.5148 3.3156,8.3907 2.9525,9.2661 2.5895,10.142 2.4075,10.581 2.4875,10.82 2.9741,11.071 L 4.021,11.61 C 3.9358,12.222 3.9649,12.826 4.0153,13.394 L 2.9741,13.931 C 2.4875,14.182 2.4075,14.421 2.5894,14.86 2.9528,15.736 3.3152,16.611 3.6777,17.487 3.8596,17.926 4.0855,18.038 4.6069,17.872 L 5.7265,17.513 C 6.0977,17.982 6.5199,18.407 6.9854,18.782 L 6.6293,19.894 C 6.4625,20.415 6.5747,20.641 7.0139,20.823 7.8898,21.185 8.7653,21.548 9.6408,21.911 10.08,22.093 10.319,22.013 10.57,21.527 L 11.109,20.48 C 11.721,20.565 12.325,20.536 12.893,20.484 L 13.43,21.525 C 13.681,22.011 13.92,22.091 14.359,21.91 15.235,21.546 16.11,21.184 16.986,20.821 17.425,20.639 17.537,20.413 17.371,19.892 L 17.013,18.772 C 17.481,18.401 17.906,17.979 18.281,17.514 L 19.393,17.87 C 19.914,18.036 20.14,17.924 20.322,17.485 20.684,16.609 21.048,15.734 21.411,14.858 21.592,14.419 21.512,14.18 21.026,13.929 L 19.979,13.39 C 20.064,12.778 20.035,12.174 19.985,11.606 L 21.026,11.069 C 21.512,10.818 21.592,10.579 21.411,10.14 21.047,9.2643 20.685,8.3885 20.322,7.5128 20.14,7.0736 19.914,6.9614 19.393,7.1281 L 18.273,7.4864 C 17.902,7.0183 17.48,6.593 17.015,6.2184 L 17.371,5.1058 C 17.537,4.5845 17.425,4.3586 16.986,4.1767 16.11,3.8146 15.235,3.4515 14.359,3.0884 13.92,2.9066 13.681,2.9864 13.43,3.4731 L 12.891,4.52 C 12.279,4.4349 11.675,4.464 11.107,4.5162 L 10.57,3.475 C 10.302,3.0037 10.063,2.9775 9.6407,3.0904 Z"/>
 <path style="fill:#ffffff;opacity:0.2" d="M 14.064 3.0039 C 13.8 2.9725 13.618 3.1076 13.43 3.4727 L 12.891 4.5195 C 12.279 4.4344 11.675 4.4634 11.107 4.5156 L 10.57 3.4746 C 10.302 3.0033 10.063 2.9769 9.6406 3.0898 C 8.7652 3.4534 7.8895 3.8152 7.0137 4.1777 C 6.6092 4.3452 6.4928 4.5615 6.6055 5 C 6.671 4.8647 6.803 4.7669 7.0137 4.6797 C 7.8895 4.3172 8.7652 3.9534 9.6406 3.5898 L 9.6406 3.5918 C 10.063 3.4789 10.302 3.5033 10.57 3.9746 L 11.107 5.0176 C 11.675 4.9654 12.279 4.9344 12.891 5.0195 L 13.43 3.9727 C 13.681 3.486 13.92 3.408 14.359 3.5898 C 15.235 3.9529 16.11 4.3156 16.986 4.6777 C 17.197 4.765 17.329 4.8627 17.395 4.998 C 17.507 4.5596 17.391 4.3433 16.986 4.1758 C 16.11 3.8137 15.235 3.451 14.359 3.0879 C 14.25 3.0424 14.153 3.0144 14.064 3.0039 z M 17.139 6.3301 L 17.016 6.7188 C 17.481 7.0934 17.902 7.5182 18.273 7.9863 L 19.393 7.6289 C 19.914 7.4622 20.14 7.5745 20.322 8.0137 C 20.685 8.8894 21.046 9.7654 21.41 10.641 C 21.423 10.671 21.424 10.694 21.434 10.723 C 21.52 10.565 21.511 10.385 21.41 10.141 C 21.046 9.2649 20.685 8.3894 20.322 7.5137 C 20.14 7.0745 19.914 6.9622 19.393 7.1289 L 18.273 7.4863 C 17.937 7.0617 17.553 6.6784 17.139 6.3301 z M 6.8633 6.3379 C 6.4461 6.6829 6.0584 7.0643 5.7188 7.4863 L 4.6074 7.1309 C 4.086 6.9643 3.8597 7.0765 3.6777 7.5156 C 3.3156 8.3915 2.9528 9.2667 2.5898 10.143 C 2.4883 10.387 2.4798 10.567 2.5664 10.725 C 2.5765 10.696 2.5772 10.673 2.5898 10.643 C 2.9528 9.7672 3.3156 8.8915 3.6777 8.0156 C 3.8597 7.5765 4.086 7.4643 4.6074 7.6309 L 5.7188 7.9863 C 6.0933 7.5208 6.5201 7.0996 6.9883 6.7285 L 6.8633 6.3379 z M 20.012 12.092 L 19.984 12.105 C 20.002 12.305 20.011 12.515 20.02 12.723 C 20.024 12.509 20.023 12.3 20.012 12.092 z M 3.9922 12.094 C 3.9804 12.325 3.9714 12.552 3.9805 12.777 C 3.9855 12.556 3.9902 12.334 4.0215 12.109 L 3.9922 12.094 z M 20.008 13.406 C 20 13.568 20.001 13.727 19.979 13.891 L 21.025 14.43 C 21.24 14.541 21.365 14.651 21.434 14.775 C 21.568 14.392 21.478 14.163 21.025 13.93 L 20.008 13.406 z M 3.9883 13.408 L 2.9746 13.932 C 2.5218 14.165 2.4316 14.394 2.5664 14.777 C 2.6351 14.653 2.7594 14.543 2.9746 14.432 L 4.0156 13.895 C 4.0016 13.737 3.997 13.571 3.9883 13.408 z M 17.139 19.16 C 17.096 19.196 17.057 19.237 17.014 19.271 L 17.371 20.393 C 17.384 20.434 17.385 20.462 17.395 20.5 C 17.466 20.353 17.457 20.164 17.371 19.893 L 17.139 19.16 z M 6.8613 19.17 L 6.6289 19.895 C 6.5421 20.166 6.5344 20.355 6.6055 20.502 C 6.6152 20.464 6.6156 20.436 6.6289 20.395 L 6.9863 19.281 C 6.9428 19.246 6.9041 19.206 6.8613 19.17 z"/>
 <path style="opacity:0.2" d="M 12,6.5 6,9.5 V 12.5 L 14.4,15.3 12,16.5 9,15 V 14.5 L 6,13.5 V 16.5 L 12,19.5 18,16.5 V 13.5 L 9.6,10.7 12,9.5 15,11 V 11.5 L 18,12.5 V 9.5 Z"/>
 <path style="fill:#fdffff" d="M 12,6 6,9 V 12 L 14.4,14.8 12,16 9,14.5 V 14 L 6,13 V 16 L 12,19 18,16 V 13 L 9.6,10.2 12,9 15,10.5 V 11 L 18,12 V 9 Z"/>
</svg>
